X:1
T:Le Cultivateur
M:C
L:1/8
K:D
"D"d3d dAdf|"A"e3c Aceg|"D"f2df "A"edcA|"G"defd "A"AABc|"D"d3d dAdf|!
"A"e3c Aceg|"D"fedf "A"edcA|1 "D"df"A"ec d2A2:|2 "D"df"A"ec d2 AG:|]!
"D"FAdA FdAF|"G"GBdB GdBG|"A"Acec AecA|"D"dfed cBAG|"D"FAdA FdAF|!
"G"GBdB GdBG|"A"Acec AecA|1 "D"df"A"ec "D"d2 AG:|2 "D"df"A"ec "D"d2 z2|]
